static/images/icons/bluesky.svg

<svg width="42" height="42" viewBox="0 0 42 42" fill="none" xmlns="http://www.w3.org/2000/svg">
<path d="M13.636 11.5401C16.616 13.7791 19.823 18.3161 21 20.7511C22.177 18.3161 25.383 13.7791 28.364 11.5411C30.515 9.92607 34 8.67707 34 12.6521C34 13.4461 33.545 19.3221 33.278 20.2761C32.35 23.5931 28.968 24.4391 25.96 23.9261C31.218 24.8221 32.556 27.7861 29.667 30.7501C24.18 36.3801 21.781 29.3381 21.167 27.5331C21.053 27.2031 21.001 27.0481 21 27.1791C21 27.0481 20.946 27.2021 20.834 27.5331C20.219 29.3381 17.82 36.3801 12.334 30.7501C9.444 27.7861 10.782 24.8211 16.04 23.9271C13.032 24.4391 9.65 23.5931 8.722 20.2771C8.455 19.3221 8 13.4471 8 12.6521C8 8.67707 11.485 9.92607 13.636 11.5411V11.5401Z" fill="white"/>
</svg>

<svg xmlns="http://www.w3.org/2000/svg" width="42" height="42" fill="none" viewBox="0 0 42 42"><linearGradient id="c" x1="8.5" x2="34.5" y1="7" y2="36" gradientUnits="userSpaceOnUse"><stop offset="0" stop-color="#fec976"/><stop offset=".5" stop-color="#ffea8d"/><stop offset="1" stop-color="#cade39"/></linearGradient><clipPath id="a"><path d="M0 0h42v42H0z"/></clipPath><mask id="b" width="42" height="42" x="0" y="0" maskUnits="userSpaceOnUse"><path fill="#fff" d="M0 0h42v42H0z"/></mask><g clip-path="url(#a)" mask="url(#b)"><path fill="url(#c)" d="M21 42c11.598 0 21-9.402 21-21S32.598 0 21 0 0 9.402 0 21s9.402 21 21 21z"/><path fill="#0e1025" d="M13.636 11.54c2.98 2.239 6.187 6.776 7.364 9.211 1.177-2.435 4.383-6.972 7.364-9.21C30.515 9.926 34 8.677 34 12.652c0 .794-.455 6.67-.722 7.624-.928 3.317-4.31 4.163-7.318 3.65 5.258.896 6.596 3.86 3.707 6.824-5.487 5.63-7.886-1.412-8.5-3.217-.114-.33-.166-.485-.167-.354 0-.131-.054.023-.166.354-.615 1.805-3.014 8.847-8.5 3.217-2.89-2.964-1.552-5.929 3.706-6.823-3.008.512-6.39-.334-7.318-3.65-.267-.955-.722-6.83-.722-7.625 0-3.975 3.485-2.726 5.636-1.111z"/></g></svg>
